X:81
T:Liberty
C:New England
M:C
K:D
L:1/8
Q:1/4=140
"D" f2 A2 f2 A2 | fgfe d2 (ef) | "G" g2 B2 g2 B2 | gagf e2 (ge) |
"D" f2 A2 f2 A2 | fgfe d2 (ef) | "G" gfed "A" cABc | "D" d2 f2 d4 :|
"D" A2 (AB) AGFE | DFAd f2 d2 | A2 AB AG F2 | "A" G E2 F E2 (FG) |
"D" A2 (AB) AGFE | DFAd f2 (ef) | "G" gfed "A" cABc | "D" d2 f2 d4 :|

